X:361
T: BERGLEUT SIND DIE SCHOENSTEN LEUT
N: E1532
O: Europa, Mitteleuropa, Deutschland, Hessen, Ober - Lahn - Kreis;
R: Staende -, Bergmanns - Lied
M: 2/4
L: 1/16
K: G
 | G2G2G2A2 | F2E2D4
E4F4 | G4z2
d2 | c2B2A2AB | c2B2A2
AB | c2B2A2G2 | F2E2D4
G4A4 | d3ed2
c2 | B2B2d2A2 | G4z4

